src/pages/elements/images/punctuation-quotes-do.svg

<svg xmlns="http://www.w3.org/2000/svg" viewBox="0 0 288 288"><g fill="none" fill-rule="evenodd"><path fill="#FFF" d="M0 0h288v288H0z"/><path d="M76.212 135.72c-3.024 0-4.392-1.728-4.392-4.248v-1.008c0-3.888 2.448-9.216 6.552-12.744h4.824c-2.88 3.024-4.608 5.544-5.4 8.928 1.944.432 2.808 1.872 2.808 3.816v1.008c0 2.52-1.368 4.248-4.392 4.248zm-14.544 0c-3.024 0-4.392-1.728-4.392-4.248v-1.008c0-3.888 2.448-9.216 6.552-12.744h4.824c-2.88 3.024-4.608 5.544-5.4 8.928 1.944.432 2.808 1.872 2.808 3.816v1.008c0 2.52-1.368 4.248-4.392 4.248zM126.54 171h-6.336l-5.04-14.832H94.86L89.82 171H83.7l17.568-50.256h7.704L126.54 171zm-12.888-20.16l-8.496-24.48h-.36L96.3 150.84h17.352zm34.488 21.024c-10.44 0-16.56-7.56-16.56-19.44 0-11.88 6.12-19.44 16.56-19.44 7.344 0 11.736 3.6 13.896 8.712l-4.824 2.448c-1.368-3.816-4.536-6.048-9.072-6.048-6.84 0-10.368 4.68-10.368 11.16v6.336c0 6.48 3.528 11.16 10.368 11.16 4.68 0 8.064-2.232 10.08-6.48l4.176 2.808c-2.376 5.328-7.2 8.784-14.256 8.784zm35.928 0c-10.08 0-16.704-7.632-16.704-19.44 0-11.808 6.624-19.44 16.704-19.44 9.936 0 16.056 7.632 16.056 18.144v2.736h-26.712v1.728c0 6.408 4.104 11.232 11.016 11.232 4.68 0 8.28-2.304 10.224-6.408l4.104 2.952c-2.376 5.04-7.704 8.496-14.688 8.496zm0-34.056c-6.264 0-10.656 4.752-10.656 11.232v.504h20.52v-.792c0-6.552-3.96-10.944-9.864-10.944zM226.332 117c3.024 0 4.392 1.728 4.392 4.248v1.008c0 3.888-2.448 9.216-6.552 12.744h-4.824c2.88-3.024 4.608-5.544 5.4-8.928-1.944-.432-2.808-1.872-2.808-3.816v-1.008c0-2.52 1.368-4.248 4.392-4.248zm-14.472 0c3.024 0 4.392 1.728 4.392 4.248v1.008c0 3.888-2.448 9.216-6.552 12.744h-4.824c2.88-3.024 4.608-5.544 5.4-8.928-1.944-.432-2.808-1.872-2.808-3.816v-1.008c0-2.52 1.368-4.248 4.392-4.248z" fill="#3D3D3D"/></g></svg>

<?xml version="1.0" encoding="UTF-8"?>
<svg width="288px" height="288px" viewBox="0 0 288 288" version="1.1" xmlns="http://www.w3.org/2000/svg" xmlns:xlink="http://www.w3.org/1999/xlink">
    <!-- Generator: Sketch 51.2 (57519) - http://www.bohemiancoding.com/sketch -->
    <title>I'm Right Copy</title>
    <desc>Created with Sketch.</desc>
    <defs></defs>
    <g id="Page-1" stroke="none" stroke-width="1" fill="none" fill-rule="evenodd">
        <g id="Type-Basics-Copy" transform="translate(-352.000000, -4980.000000)">
            <g id="I'm-Right-Copy" transform="translate(352.000000, 4980.000000)">
                <rect id="Rectangle-16-Copy-148" fill="#FFFFFF" x="0" y="0" width="288" height="288"></rect>
                <path d="M76.212,135.72 C73.188,135.72 71.82,133.992 71.82,131.472 L71.82,130.464 C71.82,126.576 74.268,121.248 78.372,117.72 L83.196,117.72 C80.316,120.744 78.588,123.264 77.796,126.648 C79.74,127.08 80.604,128.52 80.604,130.464 L80.604,131.472 C80.604,133.992 79.236,135.72 76.212,135.72 Z M61.668,135.72 C58.644,135.72 57.276,133.992 57.276,131.472 L57.276,130.464 C57.276,126.576 59.724,121.248 63.828,117.72 L68.652,117.72 C65.772,120.744 64.044,123.264 63.252,126.648 C65.196,127.08 66.06,128.52 66.06,130.464 L66.06,131.472 C66.06,133.992 64.692,135.72 61.668,135.72 Z M126.54,171 L120.204,171 L115.164,156.168 L94.86,156.168 L89.82,171 L83.7,171 L101.268,120.744 L108.972,120.744 L126.54,171 Z M113.652,150.84 L105.156,126.36 L104.796,126.36 L96.3,150.84 L113.652,150.84 Z M148.14,171.864 C137.7,171.864 131.58,164.304 131.58,152.424 C131.58,140.544 137.7,132.984 148.14,132.984 C155.484,132.984 159.876,136.584 162.036,141.696 L157.212,144.144 C155.844,140.328 152.676,138.096 148.14,138.096 C141.3,138.096 137.772,142.776 137.772,149.256 L137.772,155.592 C137.772,162.072 141.3,166.752 148.14,166.752 C152.82,166.752 156.204,164.52 158.22,160.272 L162.396,163.08 C160.02,168.408 155.196,171.864 148.14,171.864 Z M184.068,171.864 C173.988,171.864 167.364,164.232 167.364,152.424 C167.364,140.616 173.988,132.984 184.068,132.984 C194.004,132.984 200.124,140.616 200.124,151.128 L200.124,153.864 L173.412,153.864 L173.412,155.592 C173.412,162 177.516,166.824 184.428,166.824 C189.108,166.824 192.708,164.52 194.652,160.416 L198.756,163.368 C196.38,168.408 191.052,171.864 184.068,171.864 Z M184.068,137.808 C177.804,137.808 173.412,142.56 173.412,149.04 L173.412,149.544 L193.932,149.544 L193.932,148.752 C193.932,142.2 189.972,137.808 184.068,137.808 Z M226.332,117 C229.356,117 230.724,118.728 230.724,121.248 L230.724,122.256 C230.724,126.144 228.276,131.472 224.172,135 L219.348,135 C222.228,131.976 223.956,129.456 224.748,126.072 C222.804,125.64 221.94,124.2 221.94,122.256 L221.94,121.248 C221.94,118.728 223.308,117 226.332,117 Z M211.86,117 C214.884,117 216.252,118.728 216.252,121.248 L216.252,122.256 C216.252,126.144 213.804,131.472 209.7,135 L204.876,135 C207.756,131.976 209.484,129.456 210.276,126.072 C208.332,125.64 207.468,124.2 207.468,122.256 L207.468,121.248 C207.468,118.728 208.836,117 211.86,117 Z" id="“Ace”" fill="#3D3D3D"></path>
            </g>
        </g>
    </g>
</svg>
